modules/zondicons/icons/close-outline.svg

<?xml version="1.0" encoding="UTF-8" standalone="no"?>
<svg width="20px" height="20px" viewBox="0 0 20 20" version="1.1" xmlns="http://www.w3.org/2000/svg" xmlns:xlink="http://www.w3.org/1999/xlink">
    <!-- Generator: Sketch 3.7.2 (28276) - http://www.bohemiancoding.com/sketch -->
    <title>close-outline</title>
    <desc>Created with Sketch.</desc>
    <defs></defs>
    <g id="Page-1" stroke="none" stroke-width="1" fill="none" fill-rule="evenodd">
        <g id="close-outline" fill="#000000">
            <path d="M11.4142136,10 L14.2426407,7.17157288 L12.8284271,5.75735931 L10,8.58578644 L7.17157288,5.75735931 L5.75735931,7.17157288 L8.58578644,10 L5.75735931,12.8284271 L7.17157288,14.2426407 L10,11.4142136 L12.8284271,14.2426407 L14.2426407,12.8284271 L11.4142136,10 L11.4142136,10 Z M2.92893219,17.0710678 C6.83417511,20.9763107 13.1658249,20.9763107 17.0710678,17.0710678 C20.9763107,13.1658249 20.9763107,6.83417511 17.0710678,2.92893219 C13.1658249,-0.976310729 6.83417511,-0.976310729 2.92893219,2.92893219 C-0.976310729,6.83417511 -0.976310729,13.1658249 2.92893219,17.0710678 L2.92893219,17.0710678 Z M4.34314575,15.6568542 C7.46734008,18.7810486 12.5326599,18.7810486 15.6568542,15.6568542 C18.7810486,12.5326599 18.7810486,7.46734008 15.6568542,4.34314575 C12.5326599,1.21895142 7.46734008,1.21895142 4.34314575,4.34314575 C1.21895142,7.46734008 1.21895142,12.5326599 4.34314575,15.6568542 L4.34314575,15.6568542 Z" id="Combined-Shape-Copy"></path>
        </g>
    </g>
</svg>

<svg width="20" height="20" viewBox="0 0 20 20" xmlns="http://www.w3.org/2000/svg"><path d="M11.414 10l2.829-2.828-1.415-1.415L10 8.586 7.172 5.757 5.757 7.172 8.586 10l-2.829 2.828 1.415 1.415L10 11.414l2.828 2.829 1.415-1.415L11.414 10zM2.93 17.071c3.905 3.905 10.237 3.905 14.142 0 3.905-3.905 3.905-10.237 0-14.142-3.905-3.905-10.237-3.905-14.142 0-3.905 3.905-3.905 10.237 0 14.142zm1.414-1.414A8 8 0 1 0 15.657 4.343 8 8 0 0 0 4.343 15.657z" fill="#000" fill-rule="evenodd"/></svg>
